X: 377
T: Jigg it on foot
%R: jig
B: "The Compleat Country Dancing-Master" printed by John Walsh, London ca. 1740
S: 6: CCDM2 http://imslp.org/wiki/The_Compleat_Country_Dancing-Master_(Various) V.2 (170)
Z: 2013 John Chambers <jc:trillian.mit.edu>
M: 6/8
L: 1/8
K: A
% - - - - - - - - - - - - - - - - - - - - - - - - -
[|\
g2f ea2 | A2B c2A | g2f ea2 | A2B c2A |\
edc dcB | A2B c2A | edc fga | A2B c2A |]
% - - - - - - - - - - - - - - - - - - - - - - - - -
%%center Note This tune must be play'd quite through
%%begintext align
%% The 1st Man setts to his own Partner
%% and then casts off then right
%% Hands and left quite round and
%% so on to the End.
%%endtext
%%sep 1 8 500

%%sep 1 1 500
%%sep 1 1 500
